source/img/icon-burger.svg

<svg width="77" height="69" viewBox="0 0 77 69" fill="none" xmlns="http://www.w3.org/2000/svg">
<g clip-path="url(#clip0)">
<path d="M71.914 46.042H4.252C1.914 46.042 0 47.955 0 50.294V53.748C0 56.086 1.914 58 4.252 58H5.208V59.037C5.208 64.494 9.672 68.959 15.129 68.959H61.037C66.493 68.959 70.958 64.494 70.958 59.037V58H71.914C74.253 58 76.166 56.086 76.166 53.748V50.294C76.166 47.955 74.253 46.042 71.914 46.042ZM67.958 59.037C67.958 62.852 64.854 65.959 61.037 65.959H15.129C11.313 65.959 8.208 62.855 8.208 59.037V58H67.958V59.037ZM73.166 53.748C73.166 54.427 72.593 55 71.914 55H4.252C3.573 55 3 54.427 3 53.748V50.294C3 49.615 3.573 49.042 4.252 49.042H71.914C72.593 49.042 73.166 49.615 73.166 50.294V53.748Z" fill="#81B3D2"/>
<path d="M16.1613 37.8561L21.6343 41.8561L27.1113 37.8561L32.5903 41.8561L38.0683 37.8561L43.5473 41.8561L49.0253 37.8561L54.5043 41.8561L59.9843 37.8561L65.4733 41.8561L71.8413 37.2121L70.0733 34.7881L65.4733 38.1441L59.9843 34.1441L54.5043 38.1441L49.0253 34.1431L43.5473 38.1441L38.0683 34.1431L32.5903 38.1441L27.1113 34.1431L21.6353 38.1441L16.1623 34.1421L10.6853 38.1441L6.09227 34.7891L4.32227 37.2111L10.6853 41.8561L16.1613 37.8561Z" fill="#81B3D2"/>
<path d="M70.8886 31.094C70.9296 30.484 70.9436 28.478 70.9256 28.094C70.2426 12.476 55.8046 0 38.0836 0C20.3636 0 5.9246 12.476 5.2416 28.094C5.2246 28.478 5.2376 30.483 5.2806 31.094H70.8886ZM38.0836 3C54.1146 3 67.2336 14.154 67.9256 28.094H8.2416C8.9336 14.154 22.0516 3 38.0836 3Z" fill="#81B3D2"/>
<path d="M38.082 17.042C39.1866 17.042 40.082 16.1466 40.082 15.042C40.082 13.9374 39.1866 13.042 38.082 13.042C36.9775 13.042 36.082 13.9374 36.082 15.042C36.082 16.1466 36.9775 17.042 38.082 17.042Z" fill="#81B3D2"/>
<path d="M30.082 12.083C31.1866 12.083 32.082 11.1876 32.082 10.083C32.082 8.97844 31.1866 8.08301 30.082 8.08301C28.9775 8.08301 28.082 8.97844 28.082 10.083C28.082 11.1876 28.9775 12.083 30.082 12.083Z" fill="#81B3D2"/>
<path d="M46.082 12.083C47.1866 12.083 48.082 11.1876 48.082 10.083C48.082 8.97844 47.1866 8.08301 46.082 8.08301C44.9775 8.08301 44.082 8.97844 44.082 10.083C44.082 11.1876 44.9775 12.083 46.082 12.083Z" fill="#81B3D2"/>
</g>
<defs>
<clipPath id="clip0">
<rect width="76.166" height="68.959" fill="white"/>
</clipPath>
</defs>
</svg>

<svg version="1.1" id="Layer_1" xmlns="http://www.w3.org/2000/svg" xmlns:xlink="http://www.w3.org/1999/xlink" x="0px" y="0px" width="76.166px" height="68.959px" viewBox="0 0 76.166 68.959" enable-background="new 0 0 76.166 68.959" xml:space="preserve">
  <g>
    <path d="M71.914,46.042H4.252C1.914,46.042,0,47.955,0,50.294v3.454C0,56.086,1.914,58,4.252,58h0.956v1.037 c0,5.457,4.464,9.922,9.921,9.922h45.908c5.456,0,9.921-4.465,9.921-9.922V58h0.956c2.339,0,4.252-1.914,4.252-4.252v-3.454 C76.166,47.955,74.253,46.042,71.914,46.042z M67.958,59.037c0,3.815-3.104,6.922-6.921,6.922H15.129 c-3.816,0-6.921-3.104-6.921-6.922V58h59.75V59.037z M73.166,53.748c0,0.679-0.573,1.252-1.252,1.252H4.252 C3.573,55,3,54.427,3,53.748v-3.454c0-0.679,0.573-1.252,1.252-1.252h67.662c0.679,0,1.252,0.573,1.252,1.252V53.748z"/>
    <polygon points="16.162,37.856 21.635,41.856 27.112,37.856 32.591,41.856 38.069,37.856 43.548,41.856 49.026,37.856 54.505,41.856 59.985,37.856 65.474,41.856 71.842,37.212 70.074,34.788 65.474,38.144 59.985,34.144 54.505,38.144 49.026,34.143 43.548,38.144 38.069,34.143 32.591,38.144 27.112,34.143 21.636,38.144 16.163,34.142 10.686,38.144 6.093,34.789 4.323,37.211 10.686,41.856 	"/>
    <path d="M70.888,31.094c0.041-0.61,0.055-2.616,0.037-3C70.242,12.476,55.804,0,38.083,0C20.363,0,5.924,12.476,5.241,28.094 c-0.017,0.384-0.004,2.389,0.039,3H70.888z M38.083,3c16.031,0,29.15,11.154,29.842,25.094H8.241C8.933,14.154,22.051,3,38.083,3z"/>
    <circle cx="38.083" cy="15.042" r="2"/>
    <circle cx="30.083" cy="10.083" r="2"/>
    <circle cx="46.083" cy="10.083" r="2"/>
  </g>
</svg>
